assets/images/Paramètres.svg

<?xml version="1.0" encoding="UTF-8" standalone="no"?><!DOCTYPE svg PUBLIC "-//W3C//DTD SVG 1.1//EN" "http://www.w3.org/Graphics/SVG/1.1/DTD/svg11.dtd"><svg width="100%" height="100%" viewBox="0 0 133 133" version="1.1" xmlns="http://www.w3.org/2000/svg" xmlns:xlink="http://www.w3.org/1999/xlink" xml:space="preserve" xmlns:serif="http://www.serif.com/" style="fill-rule:evenodd;clip-rule:evenodd;stroke-linecap:round;stroke-linejoin:round;stroke-miterlimit:1.5;"><path d="M20.593,84.926c-0.552,-1.33 -1.047,-2.688 -1.483,-4.074l-9.642,-0c-4.076,0 -7.385,-3.309 -7.385,-7.385l0,-14.769c0,-4.076 3.309,-7.385 7.385,-7.385l9.642,0c0.436,-1.385 0.931,-2.744 1.483,-4.074c0.55,-1.33 1.16,-2.641 1.832,-3.929l-6.818,-6.818c-2.882,-2.882 -2.882,-7.561 0,-10.443l10.443,-10.443c2.882,-2.882 7.561,-2.882 10.443,-0l6.818,6.818c1.288,-0.671 2.599,-1.282 3.929,-1.832c1.33,-0.552 2.688,-1.047 4.074,-1.483l0,-9.642c0,-4.076 3.309,-7.385 7.385,-7.385l14.769,0c4.076,0 7.385,3.309 7.385,7.385l0,9.642c1.385,0.436 2.744,0.931 4.074,1.483c1.33,0.55 2.641,1.16 3.929,1.832l6.818,-6.818c2.882,-2.882 7.561,-2.882 10.443,-0l10.443,10.443c2.882,2.882 2.882,7.561 -0,10.443l-6.818,6.818c0.671,1.288 1.282,2.599 1.832,3.929c0.552,1.33 1.047,2.688 1.483,4.074l9.642,0c4.076,0 7.385,3.309 7.385,7.385l0,14.769c0,4.076 -3.309,7.385 -7.385,7.385l-9.642,0c-0.436,1.385 -0.931,2.744 -1.483,4.074c-0.55,1.33 -1.16,2.641 -1.832,3.929l6.818,6.818c2.882,2.882 2.882,7.561 0,10.443l-10.443,10.443c-2.882,2.882 -7.561,2.882 -10.443,0l-6.818,-6.818c-1.288,0.671 -2.599,1.282 -3.929,1.832c-1.33,0.552 -2.688,1.047 -4.074,1.483l-0,9.642c0,4.076 -3.309,7.385 -7.385,7.385l-14.769,0c-4.076,0 -7.385,-3.309 -7.385,-7.385l0,-9.642c-1.385,-0.436 -2.744,-0.931 -4.074,-1.483c-1.33,-0.55 -2.641,-1.16 -3.929,-1.832l-6.818,6.818c-2.882,2.882 -7.561,2.882 -10.443,0l-10.443,-10.443c-2.882,-2.882 -2.882,-7.561 0,-10.443l6.818,-6.818c-0.671,-1.288 -1.282,-2.599 -1.832,-3.929Z" style="fill:#fff;fill-opacity:0;stroke:#000;stroke-width:4.17px;"/><circle cx="66.083" cy="66.083" r="24.615" style="fill:#fff;fill-opacity:0;stroke:#000;stroke-width:4.17px;"/></svg>

<?xml version="1.0" encoding="UTF-8" standalone="no"?>
<!DOCTYPE svg PUBLIC "-//W3C//DTD SVG 1.1//EN" "http://www.w3.org/Graphics/SVG/1.1/DTD/svg11.dtd">
<svg width="128px" height="128px" viewBox="0 0 133 133" version="1.1" xmlns="http://www.w3.org/2000/svg" xmlns:xlink="http://www.w3.org/1999/xlink" xml:space="preserve" xmlns:serif="http://www.serif.com/" style="fill-rule:evenodd;clip-rule:evenodd;stroke-linecap:round;stroke-linejoin:round;stroke-miterlimit:1.5;">
    <g transform="matrix(1,0,0,1,0.002,0.003)">
        <path d="M20.593,84.926C20.041,83.596 19.546,82.238 19.11,80.852L9.468,80.852C5.392,80.852 2.083,77.543 2.083,73.467L2.083,58.698C2.083,54.622 5.392,51.313 9.468,51.313L19.11,51.313C19.546,49.928 20.041,48.569 20.593,47.239C21.143,45.909 21.753,44.598 22.425,43.31L15.607,36.492C12.725,33.61 12.725,28.931 15.607,26.049L26.05,15.606C28.932,12.724 33.611,12.724 36.493,15.606L43.311,22.424C44.599,21.753 45.91,21.142 47.24,20.592C48.57,20.04 49.928,19.545 51.314,19.109L51.314,9.467C51.314,5.391 54.623,2.082 58.699,2.082L73.468,2.082C77.544,2.082 80.853,5.391 80.853,9.467L80.853,19.109C82.238,19.545 83.597,20.04 84.927,20.592C86.257,21.142 87.568,21.752 88.856,22.424L95.674,15.606C98.556,12.724 103.235,12.724 106.117,15.606L116.56,26.049C119.442,28.931 119.442,33.61 116.56,36.492L109.742,43.31C110.413,44.598 111.024,45.909 111.574,47.239C112.126,48.569 112.621,49.927 113.057,51.313L122.699,51.313C126.775,51.313 130.084,54.622 130.084,58.698L130.084,73.467C130.084,77.543 126.775,80.852 122.699,80.852L113.057,80.852C112.621,82.237 112.126,83.596 111.574,84.926C111.024,86.256 110.414,87.567 109.742,88.855L116.56,95.673C119.442,98.555 119.442,103.234 116.56,106.116L106.117,116.559C103.235,119.441 98.556,119.441 95.674,116.559L88.856,109.741C87.568,110.412 86.257,111.023 84.927,111.573C83.597,112.125 82.239,112.62 80.853,113.056L80.853,122.698C80.853,126.774 77.544,130.083 73.468,130.083L58.699,130.083C54.623,130.083 51.314,126.774 51.314,122.698L51.314,113.056C49.929,112.62 48.57,112.125 47.24,111.573C45.91,111.023 44.599,110.413 43.311,109.741L36.493,116.559C33.611,119.441 28.932,119.441 26.05,116.559L15.607,106.116C12.725,103.234 12.725,98.555 15.607,95.673L22.425,88.855C21.754,87.567 21.143,86.256 20.593,84.926Z" style="fill:white;fill-opacity:0;stroke:black;stroke-width:4.17px;"/>
        <circle cx="66.083" cy="66.083" r="24.615" style="fill:white;fill-opacity:0;stroke:black;stroke-width:4.17px;"/>
    </g>
</svg>
